X:726
T:Swiss Lassie
T:Brumley Brae
C:William McPherson
S:Colin Hume's website,  colinhume.com  - chords can also be printed below the stave.
Q:1/2=112
M:4/4
L:1/8
K:D
P:A
|: A2 | "D"d2 cd AFDd | "D"cdAF DFAF | "Em"E2 EF GFED | "Em"CEGB =cA"A7"^cA |\
"D"d2 cd AFDd | "D"cdAF DFAF | "Em"Begf "E7"edcB | "A7"AGFE "D"D2 :|
P:B
|: a2 | "D"^gafd Aa^ga | "D"fdAa ^gafd | "Em"eBBe bagf | "E7"edcB "A7"A^ABc |\
"D"d2 cd AFDd | "D"cdAF DFAF | "G"B,DDB, "A7"A,CEG | "D"F2 "G"D2 "D"D2 :|

